img/pay__01.svg

<svg width="48" height="29" viewBox="0 0 48 29" fill="none" xmlns="http://www.w3.org/2000/svg">
<path d="M46.3158 0H1.68421C0.754047 0 0 0.741928 0 1.65714V27.3429C0 28.2581 0.754047 29 1.68421 29H46.3158C47.246 29 48 28.2581 48 27.3429V1.65714C48 0.741928 47.246 0 46.3158 0Z" fill="#F3F2F2"/>
<path d="M6.31543 9.34105V9.50676C9.92975 10.3618 12.4392 12.5244 13.4329 15.0085L12.3887 10.2218C12.3096 9.94371 12.1326 9.70228 11.8894 9.54065C11.6461 9.37901 11.3524 9.30769 11.0607 9.3394L6.31543 9.34105Z" fill="#F7981D"/>
<path d="M18.9824 19.6586L20.7618 9.33789H23.6418L21.8599 19.6586H18.9824Z" fill="#293688"/>
<path d="M32.1494 9.60538C31.3213 9.31294 30.4473 9.16625 29.5675 9.17204C26.7211 9.17204 24.7153 10.5723 24.6984 12.5783C24.6824 14.0606 26.13 14.8884 27.2247 15.3822C28.3456 15.8868 28.7228 16.2107 28.7178 16.6623C28.7111 17.3542 27.8218 17.6707 26.994 17.6707C26.0598 17.6973 25.132 17.5119 24.2824 17.1288L23.911 16.9631L23.5068 19.2731C24.5346 19.6437 25.6215 19.8303 26.7161 19.8242C29.7477 19.8242 31.7098 18.4404 31.7325 16.2977C31.7435 15.1237 30.9746 14.2263 29.314 13.4939C28.3035 13.0166 27.6904 12.6984 27.6972 12.2146C27.6972 11.7854 28.2193 11.3272 29.3468 11.3272C30.0857 11.3109 30.8201 11.4455 31.5035 11.7224L31.7612 11.8417L32.1527 9.60456L32.1494 9.60538Z" fill="#293688"/>
<path d="M37.1075 9.34107C36.7952 9.30609 36.4799 9.37323 36.2102 9.53211C35.9405 9.69099 35.7314 9.93279 35.6153 10.2202L31.3467 19.6659H34.3968L34.9863 18.0842H38.6301L38.9669 19.6659H41.6785L39.3063 9.34522H37.1075V9.34107ZM35.7981 16.0152C36.0364 15.4211 36.945 13.131 36.945 13.131C36.9282 13.1583 37.1816 12.5336 37.3273 12.1466L37.5218 13.0357L38.1888 16.0185H35.7981V16.0152Z" fill="#293688"/>
<path d="M13.6866 16.4111L13.4339 14.9959C12.7014 13.1142 11.2796 11.5703 9.44824 10.6683L11.9931 19.6566H15.0432L19.6175 9.33594H16.5674L13.6866 16.4111Z" fill="#293688"/>
</svg>

<svg width="48" height="29" fill="none" xmlns="http://www.w3.org/2000/svg"><path d="M46.316 0H1.684C.754 0 0 .742 0 1.657v25.686C0 28.258.754 29 1.684 29h44.632c.93 0 1.684-.742 1.684-1.657V1.657C48 .742 47.246 0 46.316 0z" fill="#F3F2F2"/><path d="M6.315 9.341v.166c3.615.855 6.124 3.017 7.118 5.502l-1.044-4.787a1.22 1.22 0 00-.5-.681 1.254 1.254 0 00-.828-.202l-4.746.002z" fill="#F7981D"/><path d="M18.982 19.659l1.78-10.321h2.88l-1.782 10.32h-2.878zM32.15 9.605a7.605 7.605 0 00-2.582-.433c-2.847 0-4.853 1.4-4.87 3.406-.016 1.483 1.432 2.31 2.527 2.804 1.12.505 1.498.829 1.493 1.28-.007.692-.896 1.009-1.724 1.009a6.171 6.171 0 01-2.712-.542l-.371-.166-.404 2.31a9.31 9.31 0 003.21.551c3.03 0 4.993-1.384 5.016-3.526.01-1.174-.758-2.072-2.419-2.804-1.01-.477-1.624-.796-1.617-1.28 0-.429.522-.887 1.65-.887a5.426 5.426 0 012.156.395l.258.12.392-2.237h-.004zm4.958-.264a1.45 1.45 0 00-.898.191c-.27.159-.479.4-.595.688l-4.268 9.446h3.05l.59-1.582h3.643l.337 1.582h2.712l-2.373-10.32h-2.198V9.34zm-1.31 6.674c.238-.594 1.147-2.884 1.147-2.884-.017.027.237-.597.382-.984l.195.889.667 2.982h-2.39v-.003zm-22.111.396l-.253-1.415a8.114 8.114 0 00-3.986-4.328l2.545 8.989h3.05l4.575-10.321h-3.05l-2.881 7.075z" fill="#293688"/></svg>
